Origami/24x24/apps/distributor-logo-lubuntu.svg

<svg width="24" height="24" version="1" xmlns="http://www.w3.org/2000/svg">
 <circle cx="12" cy="12.5" r="10" style="opacity:.2"/>
 <circle cx="12" cy="12" r="10" style="fill:#0068c8"/>
 <path d="m14.475 4.6406c-0.307-0.01-1.987 0.4794-2.479 1.1094-1.359 0.1008-6.4282 3.4944-9.9823 5.977a10 10 0 0 0 -0.0137 0.273 10 10 0 0 0 0.043 0.855c1.3194-0.481 2.6419-0.916 3.2441-0.916 0.149 0 0.2567 0.03 0.3067 0.09 0.2889 0.34-0.9419 1.992-2.2129 3.862-0.1176 0.171-0.2323 0.346-0.3497 0.519a10 10 0 0 0 0.3614 0.654c1.6018-1.994 3.3478-4.095 3.8808-4.183 0.031 0 0.062 0 0.084 0.01 0.0965 0.116-1.5269 2.734-3.1465 5.377a10 10 0 0 0 0.6778 0.757c0.7049-0.975 1.4266-1.976 2.1445-2.964 1.91-2.64 3.5978-5.102 4.4218-5.122h0.076c2.342 0.019 4.621 5.421 5.987 9.393a10 10 0 0 0 0.709 -0.506c-0.702-4.482-2.16-10.863-4.985-12.7459 0.329-0.22 0.356-1.3399 0.356-1.3399l0.877-1.0996z" style="fill:#ffffff"/>
 <path d="M 12 2 A 10 10 0 0 0 2 12 A 10 10 0 0 0 2.0098 12.293 A 10 10 0 0 1 12 2.5 A 10 10 0 0 1 21.99 12.207 A 10 10 0 0 0 22 12 A 10 10 0 0 0 12 2 z" style="fill:#ffffff;opacity:.1"/>
</svg>

<svg xmlns="http://www.w3.org/2000/svg" width="24" height="24" version="1">
 <circle style="opacity:0.2" cx="12" cy="12.5" r="10"/>
 <circle style="fill:#0068c8" cx="12" cy="12" r="10"/>
 <path style="fill:#ffffff" d="M 14.475 4.6406 C 14.168 4.6306 12.488 5.12 11.996 5.75 C 10.637 5.8508 5.5678 9.2444 2.0137 11.727 A 10 10 0 0 0 2 12 A 10 10 0 0 0 2.043 12.855 C 3.3624 12.374 4.6849 11.939 5.2871 11.939 C 5.4361 11.939 5.5438 11.969 5.5938 12.029 C 5.8827 12.369 4.6519 14.021 3.3809 15.891 C 3.2633 16.062 3.1486 16.237 3.0312 16.41 A 10 10 0 0 0 3.3926 17.064 C 4.9944 15.07 6.7404 12.969 7.2734 12.881 C 7.3044 12.881 7.3354 12.881 7.3574 12.891 C 7.4539 13.007 5.8305 15.625 4.2109 18.268 A 10 10 0 0 0 4.8887 19.025 C 5.5936 18.05 6.3153 17.049 7.0332 16.061 C 8.9432 13.421 10.631 10.959 11.455 10.939 L 11.531 10.939 C 13.873 10.958 16.152 16.36 17.518 20.332 A 10 10 0 0 0 18.227 19.826 C 17.525 15.344 16.067 8.963 13.242 7.0801 C 13.571 6.8601 13.598 5.7402 13.598 5.7402 L 14.475 4.6406 z"/>
 <path style="opacity:0.1;fill:#ffffff" d="M 12 2 A 10 10 0 0 0 2 12 A 10 10 0 0 0 2.0098 12.293 A 10 10 0 0 1 12 2.5 A 10 10 0 0 1 21.99 12.207 A 10 10 0 0 0 22 12 A 10 10 0 0 0 12 2 z"/>
</svg>
